site/images/contact/directbox-send.svg

<svg width="30" height="30" viewBox="0 0 30 30" fill="none" xmlns="http://www.w3.org/2000/svg">
<path d="M15.0008 10.9376C14.4883 10.9376 14.0633 10.5126 14.0633 10.0001V4.76261L13.1633 5.66261C12.8008 6.02511 12.2008 6.02511 11.8383 5.66261C11.4758 5.30011 11.4758 4.70011 11.8383 4.33761L14.3383 1.83761C14.6008 1.57511 15.0133 1.48761 15.3633 1.63761C15.7133 1.77511 15.9383 2.12511 15.9383 2.50011V10.0001C15.9383 10.5126 15.5133 10.9376 15.0008 10.9376Z" fill="#4D4D4D"/>
<path d="M17.5008 5.9373C17.2633 5.9373 17.0258 5.8498 16.8383 5.6623L14.3383 3.1623C13.9758 2.7998 13.9758 2.1998 14.3383 1.8373C14.7008 1.4748 15.3008 1.4748 15.6633 1.8373L18.1633 4.3373C18.5258 4.6998 18.5258 5.2998 18.1633 5.6623C17.9758 5.8498 17.7383 5.9373 17.5008 5.9373Z" fill="#4D4D4D"/>
<path d="M20 28.4375H10C2.8125 28.4375 2.8125 24.625 2.8125 21.25V20C2.8125 17.2125 2.8125 14.0625 8.75 14.0625C10.2375 14.0625 10.7875 14.425 11.5625 15C11.6 15.0375 11.65 15.0625 11.6875 15.1125L12.9625 16.4625C14.0375 17.6 15.9875 17.6 17.0625 16.4625L18.3375 15.1125C18.375 15.075 18.4125 15.0375 18.4625 15C19.2375 14.4125 19.7875 14.0625 21.275 14.0625C27.2125 14.0625 27.2125 17.2125 27.2125 20V21.25C27.1875 26.025 24.775 28.4375 20 28.4375ZM8.75 15.9375C4.6875 15.9375 4.6875 17.2125 4.6875 20V21.25C4.6875 24.675 4.6875 26.5625 10 26.5625H20C23.725 26.5625 25.3125 24.975 25.3125 21.25V20C25.3125 17.2125 25.3125 15.9375 21.25 15.9375C20.35 15.9375 20.1625 16.05 19.625 16.45L18.4125 17.7375C17.5125 18.6875 16.3 19.2125 15 19.2125C13.7 19.2125 12.4875 18.6875 11.5875 17.7375L10.375 16.45C9.8375 16.05 9.65 15.9375 8.75 15.9375Z" fill="#4D4D4D"/>
<path d="M6.25 15.9373C5.7375 15.9373 5.3125 15.5123 5.3125 14.9998V12.4998C5.3125 10.0748 5.3125 7.06228 9.9125 6.62478C10.4125 6.56228 10.8875 6.94978 10.9375 7.47478C10.9875 7.98728 10.6125 8.44978 10.0875 8.49978C7.1875 8.76228 7.1875 9.93728 7.1875 12.4998V14.9998C7.1875 15.5123 6.7625 15.9373 6.25 15.9373Z" fill="#4D4D4D"/>
<path d="M23.7498 15.9373C23.2373 15.9373 22.8123 15.5123 22.8123 14.9998V12.4998C22.8123 9.93729 22.8123 8.76229 19.9123 8.48729C19.3998 8.43729 19.0248 7.97479 19.0748 7.46229C19.1248 6.94979 19.5748 6.56229 20.0998 6.62479C24.6998 7.06229 24.6998 10.0748 24.6998 12.4998V14.9998C24.6873 15.5123 24.2623 15.9373 23.7498 15.9373Z" fill="#4D4D4D"/>
</svg>

<svg fill="none" viewBox="0 0 30 30"><path fill="#4D4D4D" d="M15 10.938a.944.944 0 01-.937-.938V4.763l-.9.9a.943.943 0 01-1.325 0 .943.943 0 010-1.325l2.5-2.5a.941.941 0 011.025-.2c.35.137.575.487.575.862V10a.944.944 0 01-.937.938z"/><path fill="#4D4D4D" d="M17.5 5.937a.927.927 0 01-.662-.275l-2.5-2.5a.943.943 0 010-1.325.943.943 0 011.325 0l2.5 2.5a.943.943 0 010 1.325.927.927 0 01-.662.275zm2.5 22.5H10c-7.188 0-7.188-3.812-7.188-7.187V20c0-2.788 0-5.938 5.938-5.938 1.488 0 2.037.363 2.813.938.037.037.087.063.124.113l1.276 1.35c1.075 1.137 3.025 1.137 4.1 0l1.274-1.35c.038-.038.076-.075.125-.113.776-.588 1.326-.938 2.813-.938 5.938 0 5.938 3.15 5.938 5.938v1.25c-.026 4.775-2.438 7.188-7.213 7.188zm-11.25-12.5c-4.063 0-4.063 1.275-4.063 4.063v1.25c0 3.425 0 5.313 5.313 5.313h10c3.725 0 5.313-1.588 5.313-5.313V20c0-2.788 0-4.063-4.063-4.063-.9 0-1.087.113-1.625.513l-1.212 1.288A4.663 4.663 0 0115 19.212a4.66 4.66 0 01-3.412-1.474l-1.213-1.288c-.537-.4-.725-.512-1.625-.512z"/><path fill="#4D4D4D" d="M6.25 15.937A.944.944 0 015.312 15v-2.5c0-2.425 0-5.438 4.6-5.875.5-.063.975.325 1.025.85a.94.94 0 01-.85 1.025c-2.9.262-2.9 1.437-2.9 4V15a.944.944 0 01-.937.937zm17.5 0a.944.944 0 01-.938-.937v-2.5c0-2.563 0-3.738-2.9-4.013a.939.939 0 01-.837-1.025c.05-.512.5-.9 1.025-.837 4.6.437 4.6 3.45 4.6 5.875V15a.964.964 0 01-.95.937z"/></svg>
